X:100
T:Mairy La More. LIT.100
M:3/4
Q:1/4=125
L:1/8
B:Wm. Litten MS, 1802
Z:Village Music Project 2017 Anne Wride
K:D
N: No bar lines or time signature in original. Think it is in 3 time... or could be a free moving air without time restrictions..
ad | fa d2 c>d | B>A d2 B>A | G>F dB A2 |((3BAG) ((3FED) F2 |A2 Bd ce | d2 z2 :|
|: a2 dd ef | fg fe ((3fdB) | gg fe dc | BA dc AF |
efgfed | dc BA BA | d2 BA  GF |((3dBA) ((3BAG)  ((3FED) | FA Bd ce | d2 z2:|

